X:1167
T:Vesle Herman
T:Herman er en lystig fyr
C:anon.
O:Denmark?
R:Nursery song
Z:Transcribed by Frank Nordberg - http://www.musicaviva.com
F:http://abc.musicaviva.com/tunes/denmark/herman-er-en-lystig-fyr/herman-er-en-lystig-fyr-1.abc
M:2/4
L:1/8
K:C
"C"GGEC|"F"AA"C"G2|"C"cGFE|"G7"D2"C"C2:|
w:Her-man er en lys-tig fyr, dypt han kan sig buk-ke.
w:Han har man-ge sm\aa-be-styr, har ei tid \aa suk-ke.
"C"EFGG|"G7"DEF2|"C"EFGG|"G7"DEF2|
w:Hju-le, hop-pe, g\aa p\aa t\aa, le-ke bin-de-bukk og-s\aa.
"C"GGAB|"C"c2E2|"C"GG"G7"FB,|"G7"D2"C"C2|]
w:Det kan ves-le Her-man, det kan ves-le Her-man.
W:
W:Herman er en lystig fyr,
W:dypt han kan sig bukke.
W:Han har mange sm\aabestyr,
W:har ei tid \aa sukke.
W:  Hjule, hoppe, g\aa p\aa t\aa,
W:  leke bindebukk ogs\aa.
W:  Det kan vesle Herman,
W:  det kan vesle Her-man.
W:
W:
W:  From Musica Viva - http://www.musicaviva.com
W:  the Internet center for free sheet music downloads.

